!!!OTL: IM FRUEHLINGSSCHATTEN
!!!ARE: Europa, Mitteleuropa, Deutschland
!!!SCT: F0912
!!!YEM: Copyright 1995, estate of Helmut Schaffrath.
**kern
*ICvox
*Ivox
*M6/8
*k[f#c#g#d#]
*E:
{8b
=1
8b
8g#
8ee
8b
8g#
8e
=2
8f#
8g#
8a
4g#}
{8g#
=3
8f#
8g#
8a#
8b
8cc#
8dd#
=4
8ee
8cc#
8ff#
16ee
16dd#
8dd#}
{8b
=5
4ee
8dd#
8cc#
8a
8f#
=6
[4.b
4b]
8dn
=7
4.e
4r}
==
!!!AGN: Liebes - Lied
!!!ONB: ESAC (Essen Associative Code) Database: FINK
!!!AMT: compound duple
!!!AIN: vox
!!!EED: Helmut Schaffrath
!!!EEV: 1.0
*-
